src/assets/images/cursor.svg

<svg width="70" height="44" viewBox="0 0 70 44" fill="none" xmlns="http://www.w3.org/2000/svg">
<path d="M34.8423 42.7783L34.842 42.7783C23.4209 43.0448 12.0925 36.1047 1.24833 21.6892C3.0464 19.3207 6.96811 14.5581 12.4069 10.1955C18.3566 5.42292 26.0265 1.20515 34.6525 1.00595C46.084 0.769945 57.4214 7.56787 68.2617 21.7413C66.4693 24.1423 62.545 28.9907 57.0993 33.4326C51.1447 38.2894 43.47 42.58 34.8423 42.7783Z" fill="#FFF0F2" stroke="#FF4000" stroke-width="2"/>
<path d="M50.2766 16C50.9097 17.7513 51.2549 19.6404 51.2549 21.6101C51.2549 30.7228 43.8676 38.1101 34.7549 38.1101C25.6422 38.1101 18.2549 30.7228 18.2549 21.6101C18.2549 19.6404 18.6 17.7513 19.2331 16" stroke="#FF4000" stroke-width="2"/>
<path d="M43.4664 19C43.8117 19.9505 44 20.9758 44 22.0448C44 26.9906 39.9706 31 35 31C30.0294 31 26 26.9906 26 22.0448C26 20.9758 26.1883 19.9505 26.5336 19" stroke="#FF4000" stroke-width="2"/>
<path d="M26.5336 25C26.1883 24.0495 26 23.0242 26 21.9552C26 18.9052 27.5324 16.2113 29.8729 14.5942M43.4664 25C43.8117 24.0495 44 23.0242 44 21.9552C44 18.9052 42.4676 16.2113 40.1271 14.5942" stroke="#FF4000" stroke-width="2"/>
<path d="M67 23C57.5309 16.2084 31.2741 6.70013 2 23" stroke="#FF4000" stroke-width="2"/>
</svg>

<svg width="70" height="44" fill="none" xmlns="http://www.w3.org/2000/svg"><path d="M34.842 42.778c-11.421.267-22.75-6.673-33.594-21.089 1.798-2.368 5.72-7.13 11.159-11.494 5.95-4.772 13.62-8.99 22.246-9.19C46.084.771 57.42 7.569 68.262 21.742c-1.793 2.401-5.717 7.25-11.163 11.692-5.954 4.856-13.629 9.147-22.257 9.345z" fill="#FFF0F2" stroke="#FF4000" stroke-width="2"/><path d="M50.277 16a16.47 16.47 0 0 1 .978 5.61c0 9.113-7.387 16.5-16.5 16.5s-16.5-7.387-16.5-16.5c0-1.97.345-3.859.978-5.61" stroke="#FF4000" stroke-width="2"/><path d="M43.466 19A8.9 8.9 0 0 1 44 22.045C44 26.99 39.97 31 35 31s-9-4.01-9-8.955A8.9 8.9 0 0 1 26.534 19" stroke="#FF4000" stroke-width="2"/><path d="M26.534 25a8.933 8.933 0 0 1 3.34-10.406M43.465 25a8.933 8.933 0 0 0-3.34-10.406M67.001 23c-9.47-6.792-35.726-16.3-65 0" stroke="#FF4000" stroke-width="2"/></svg>
